Hatter-kde/actions/22/artifact.svg

<?xml version="1.0" encoding="UTF-8"?>
<svg viewBox="0 0 22 22" xmlns="http://www.w3.org/2000/svg">
 <defs id="defs3051">
  <style id="current-color-scheme" type="text/css">.ColorScheme-Text {
        color:#363636;
      }</style>
 </defs>
 <path class="ColorScheme-Text" d="m4 3v6h14v-1-5h-1-12-1zm1 1h12v4h-12v-4zm0 6v1h2v-1h-2zm5 0v1h2v-1h-2zm5 0v1h2v-1h-2zm-11 2v1 6h1 8 1l4-4v-1.4062-0.59375-1h-14zm1 1h12v1h-4v1 3h-8v-5z" fill="currentColor"/>
</svg>

<svg xmlns="http://www.w3.org/2000/svg" viewBox="0 0 22 22">
  <defs id="defs3051">
    <style type="text/css" id="current-color-scheme">
      .ColorScheme-Text {
        color:#363636;
      }
      </style>
  </defs>
 <path 
     style="fill:currentColor;fill-opacity:1;stroke:none" 
     d="M 4 3 L 4 9 L 18 9 L 18 8 L 18 3 L 17 3 L 5 3 L 4 3 z M 5 4 L 17 4 L 17 8 L 5 8 L 5 4 z M 5 10 L 5 11 L 7 11 L 7 10 L 5 10 z M 10 10 L 10 11 L 12 11 L 12 10 L 10 10 z M 15 10 L 15 11 L 17 11 L 17 10 L 15 10 z M 4 12 L 4 13 L 4 19 L 5 19 L 13 19 L 14 19 L 18 15 L 18 13.59375 L 18 13 L 18 12 L 4 12 z M 5 13 L 17 13 L 17 14 L 13 14 L 13 15 L 13 18 L 5 18 L 5 13 z "
     class="ColorScheme-Text"
     />
 </svg>
